X:1
T:Title
%%score 1 2 3
L:1/8
M:3/2
K:C
V:1 treble nm="Part_1"
V:2 treble-8 nm="Part_2"
V:3 treble-8 nm="Part_3"
V:1
 G4 G4 A2 B2 | c6 _B2 A4 | G8 F4 | G2 A2 _B2 G4 F2 | G4 z4 B4 | c6 B2 d2 c2 | A4 F4 c4 | %7
 _B6 A2 A2 G2 | _B8 z4 | d4 c4 B4 | c2 d2 e4 d4 | c2 _B2 G2 A2 G2 F2 | A4 z4 F4 | G4 A6 G2 | %14
 A2 B2 c4 _B2 A2- | A2 G2 F2 E2 F4 | G12 |] %17
V:2
 d4 d4 e2 f2 | g6 f2 e4 | d8 c4 | d2 e2 f2 d4 c2 | d4 z4 f4 | g6 f2 a2 g2 | e4 c4 g4 | %7
 f6 e2 e2 d2 | f8 z4 | a4 g4 f4 | g2 a2 b4 a4 | g2 f2 d2 e2 d2 c2 | e4 z4 c4 | d4 e6 d2 | %14
 e2 f2 g4 f2 e2- | e2 d2 c2 B2 c4 | d12 |] %17
V:3
 G4 B4 c2 d2 | c2 e4 d2 c4 | _B4 G4 A4 | _B2 c2 d2 B2 A4 | G8 d4 | c4 e4 d4 | c4 A4 e4 | d4 c8 | %8
 _B8 d4 | f4 e4 d4 | e2 f2 g4 d4 | _e2 d2 _B2 c2 B4 | A8 A4 | B4 A6 B2 | c2 d2 e2 c2 d2 c2 | %15
 A2 B2 A8 | G12 |] %17

